Source/WebInspectorUI/UserInterface/Images/gtk/GoToArrow.svg

<?xml version="1.0" encoding="UTF-8" standalone="no"?>
<!-- Created with Inkscape (http://www.inkscape.org/) -->

<svg
   xmlns:dc="http://purl.org/dc/elements/1.1/"
   xmlns:cc="http://creativecommons.org/ns#"
   xmlns:rdf="http://www.w3.org/1999/02/22-rdf-syntax-ns#"
   xmlns:svg="http://www.w3.org/2000/svg"
   xmlns="http://www.w3.org/2000/svg"
   xmlns:xlink="http://www.w3.org/1999/xlink"
   version="1.1"
   width="10"
   height="10"
   id="svg2987">
  <defs
     id="defs2989">
    <linearGradient
       x1="31.340973"
       y1="235.03157"
       x2="31.340973"
       y2="224.67633"
       id="linearGradient4884-8-0"
       xlink:href="#linearGradient4022-2-0-9-1"
       gradientUnits="userSpaceOnUse"
       gradientTransform="matrix(-1,0,0,1,63,0)" />
    <linearGradient
       id="linearGradient4022-2-0-9-1">
      <stop
         id="stop4024-2-8-8-2"
         style="stop-color:#555753;stop-opacity:1"
         offset="0" />
      <stop
         id="stop4026-8-3-0-8"
         style="stop-color:#babdb6;stop-opacity:1"
         offset="1" />
    </linearGradient>
    <linearGradient
       x1="31.340973"
       y1="235.03157"
       x2="31.340973"
       y2="224.67633"
       id="linearGradient4884"
       xlink:href="#linearGradient4022-2-0"
       gradientUnits="userSpaceOnUse" />
    <linearGradient
       id="linearGradient4022-2-0">
      <stop
         id="stop4024-2-8"
         style="stop-color:#555753;stop-opacity:1"
         offset="0" />
      <stop
         id="stop4026-8-3"
         style="stop-color:#babdb6;stop-opacity:1"
         offset="1" />
    </linearGradient>
    <linearGradient
       id="linearGradient5066">
      <stop
         id="stop5068"
         style="stop-color:#555753;stop-opacity:1"
         offset="0" />
      <stop
         id="stop5070"
         style="stop-color:#888a85;stop-opacity:1"
         offset="1" />
    </linearGradient>
    <linearGradient
       x1="31.340973"
       y1="235.03157"
       x2="31.340973"
       y2="224.67633"
       id="linearGradient3083"
       xlink:href="#linearGradient4022-2-0"
       gradientUnits="userSpaceOnUse" />
    <linearGradient
       x1="31.340973"
       y1="235.03157"
       x2="31.340973"
       y2="224.67633"
       id="linearGradient3097"
       xlink:href="#linearGradient5066"
       gradientUnits="userSpaceOnUse"
       gradientTransform="translate(-22.424752,-224.73565)" />
    <linearGradient
       x1="31.340973"
       y1="235.03157"
       x2="31.340973"
       y2="224.67633"
       id="linearGradient4884-2"
       xlink:href="#linearGradient4022-2-0-4"
       gradientUnits="userSpaceOnUse" />
    <linearGradient
       id="linearGradient4022-2-0-4">
      <stop
         id="stop4024-2-8-9"
         style="stop-color:#555753;stop-opacity:1"
         offset="0" />
      <stop
         id="stop4026-8-3-3"
         style="stop-color:#babdb6;stop-opacity:1"
         offset="1" />
    </linearGradient>
    <linearGradient
       x1="31.340973"
       y1="235.03157"
       x2="31.340973"
       y2="224.67633"
       id="linearGradient4886"
       xlink:href="#linearGradient5066-5"
       gradientUnits="userSpaceOnUse" />
    <linearGradient
       id="linearGradient5066-5">
      <stop
         id="stop5068-9"
         style="stop-color:#555753;stop-opacity:1"
         offset="0" />
      <stop
         id="stop5070-3"
         style="stop-color:#888a85;stop-opacity:1"
         offset="1" />
    </linearGradient>
    <linearGradient
       x1="31.340973"
       y1="235.03157"
       x2="31.340973"
       y2="224.67633"
       id="linearGradient3930"
       xlink:href="#linearGradient5066-0-5-9-0"
       gradientUnits="userSpaceOnUse"
       gradientTransform="translate(12,0)" />
    <linearGradient
       id="linearGradient5066-0-5-9-0">
      <stop
         id="stop5068-1-4-8-0"
         style="stop-color:#555753;stop-opacity:1"
         offset="0" />
      <stop
         id="stop5070-1-9-9-9"
         style="stop-color:#888a85;stop-opacity:1"
         offset="1" />
    </linearGradient>
    <linearGradient
       x1="31.340973"
       y1="235.03157"
       x2="31.340973"
       y2="224.67633"
       id="linearGradient6072"
       xlink:href="#linearGradient5066-0-5-9-0"
       gradientUnits="userSpaceOnUse"
       gradientTransform="translate(-19.704978,-215.76977)" />
    <linearGradient
       x1="31.340973"
       y1="235.03157"
       x2="31.340973"
       y2="224.67633"
       id="linearGradient3787"
       xlink:href="#linearGradient5066-0-5-9-0"
       gradientUnits="userSpaceOnUse"
       gradientTransform="translate(-19.704978,-215.76977)" />
  </defs>
  <metadata
     id="metadata2992">
    <rdf:RDF>
      <cc:Work
         rdf:about="">
        <dc:format>image/svg+xml</dc:format>
        <dc:type
           rdf:resource="http://purl.org/dc/dcmitype/StillImage" />
        <dc:title></dc:title>
        <cc:license
           rdf:resource="http://creativecommons.org/licenses/by-sa/3.0/" />
      </cc:Work>
      <cc:License
         rdf:about="http://creativecommons.org/licenses/by-sa/3.0/">
        <cc:permits
           rdf:resource="http://creativecommons.org/ns#Reproduction" />
        <cc:permits
           rdf:resource="http://creativecommons.org/ns#Distribution" />
        <cc:requires
           rdf:resource="http://creativecommons.org/ns#Notice" />
        <cc:requires
           rdf:resource="http://creativecommons.org/ns#Attribution" />
        <cc:permits
           rdf:resource="http://creativecommons.org/ns#DerivativeWorks" />
        <cc:requires
           rdf:resource="http://creativecommons.org/ns#ShareAlike" />
      </cc:License>
    </rdf:RDF>
  </metadata>
  <g
     transform="translate(0,-6)"
     id="layer1">
    <path
       d="M 3.78125,6 C 2.2327274,6 0.96875,7.2639766 0.96875,8.8125 l 0,0.40625 1.625,0 0,-0.40625 C 2.59375,8.13521 3.1039608,7.625 3.78125,7.625 4.4585392,7.625 5,8.13521 5,8.8125 l 0,5.25 1.625,0 0,-5.25 C 6.625,7.2639766 5.3297726,6 3.78125,6 z"
       id="path5641"
       style="font-size:medium;font-style:normal;font-variant:normal;font-weight:normal;font-stretch:normal;text-indent:0;text-align:start;text-decoration:none;line-height:normal;letter-spacing:normal;word-spacing:normal;text-transform:none;direction:ltr;block-progression:tb;writing-mode:lr-tb;text-anchor:start;baseline-shift:baseline;color:#000000;fill-opacity:1;stroke:none;stroke-width:1.61207771;marker:none;visibility:visible;display:inline;overflow:visible;enable-background:accumulate;font-family:Sans;-inkscape-font-specification:Sans" />
    <path
       d="m 9.0301942,11.642353 -0.8060388,0 c -0.2070633,0 -0.4259593,0.104648 -0.5793404,0.251887 L 5.8060389,13.733016 3.9672628,11.89424 C 3.8138816,11.747001 3.5949857,11.642353 3.3879223,11.642353 l -0.8060388,0 0,0.806038 c 0,0.249429 0.072785,0.445192 0.2266984,0.604529 L 5.8060389,16 8.8034958,13.05292 c 0.1539131,-0.159337 0.2266984,-0.3551 0.2266984,-0.604529 z"
       id="path5643"
       style="font-size:medium;font-style:normal;font-variant:normal;font-weight:normal;font-stretch:normal;text-indent:0;text-align:start;text-decoration:none;line-height:normal;letter-spacing:normal;word-spacing:normal;text-transform:none;direction:ltr;block-progression:tb;writing-mode:lr-tb;text-anchor:start;color:#bebebe;fill-opacity:1;stroke:none;stroke-width:2;marker:none;visibility:visible;display:inline;overflow:visible;enable-background:accumulate;font-family:Bitstream Vera Sans;-inkscape-font-specification:Bitstream Vera Sans" />
  </g>
</svg>

<?xml version="1.0" encoding="UTF-8" standalone="no"?>
<!-- Licensed under the Creative Commons Attribution-Share Alike 3.0 United States License (http://creativecommons.org/licenses/by-sa/3.0/) -->
<svg xmlns="http://www.w3.org/2000/svg" version="1.1" viewBox="0 0 10 10">
 <g transform="translate(0,-6)">
  <path style="block-progression:tb;text-indent:0;color:#000000;text-transform:none" d="m3.7812 6c-1.5485 0-2.8124 1.264-2.8124 2.8125v0.40625h1.625v-0.40625c0-0.6773 0.5102-1.1875 1.1874-1.1875 0.6773 0 1.2188 0.5102 1.2188 1.1875v5.25h1.625v-5.25c0-1.5485-1.2952-2.8125-2.8438-2.8125z"/>
  <path style="block-progression:tb;text-indent:0;color:#bebebe;text-transform:none" d="m9.0302 11.642h-0.80604c-0.20706 0-0.42596 0.10465-0.57934 0.25189l-1.8389 1.839-1.8387-1.839c-0.1534-0.147-0.3723-0.252-0.5794-0.252h-0.80604v0.80604c0 0.24943 0.072785 0.44519 0.2267 0.60453l2.9974 2.947 2.9975-2.947c0.15391-0.15934 0.2267-0.3551 0.2267-0.60453z"/>
 </g>
</svg>
